images/2key.svg

<svg height="250" viewBox="0 0 250 250" width="250" xmlns="http://www.w3.org/2000/svg" xmlns:xlink="http://www.w3.org/1999/xlink"><linearGradient id="a" gradientUnits="userSpaceOnUse" x1="151.39810122264" x2="97.43119877736" y1="498.7109693736" y2="-265.29536369808"><stop offset=".3" stop-color="#17936f"/><stop offset=".41" stop-color="#14a073"/><stop offset=".63" stop-color="#0bc27e"/><stop offset=".79" stop-color="#04e087"/></linearGradient><path d="m250 125c0 69.035156-55.964844 125-125 125s-125-55.964844-125-125 55.964844-125 125-125 125 55.964844 125 125zm0 0" fill="url(#a)"/><path d="m212.027344 123.382812c-1.441406 0-2.609375 1.164063-2.613282 2.605469 0 1.9375-.058593 3.769531-.175781 5.496094-.394531 3.636719-1.566406 6.863281-3.191406 8.511719-.765625.839844-1.859375 1.308594-2.996094 1.277344s-2.203125-.554688-2.921875-1.433594c-2.492187-2.800782-3.257812-8.945313-2.722656-13.570313.113281-1.402343-.90625-2.640625-2.304688-2.800781-1.394531-.164062-2.667968.808594-2.878906 2.199219-.269531 2.394531-.269531 4.8125 0 7.207031-.023437.210938-.046875.421875-.074218.632812-1.128907 9.070313-5.007813 10.988282-8.0625 10.988282-.972657-.03125-1.933594-.214844-2.84375-.542969l.152343-.171875c2.921875-3.304688 4.671875-7.585938 4.671875-11.453125 0-2.480469-.722656-4.648437-2.113281-6.210937-1.082031-1.269532-3.101563-2.746094-6.558594-2.746094-2.855469-.011719-5.503906 1.476562-6.980469 3.917968-2.335937 3.625-2.558593 9.003907-.558593 13.394532.535156 1.160156 1.234375 2.230468 2.078125 3.1875-1.097656.394531-2.253906.605468-3.421875.625-3.664063 0-8.957031-4.5-12-7.75 3.34375-2.648438 6.289062-5.765625 8.742187-9.257813.828125-1.175781.542969-2.804687-.636718-3.632812-1.175782-.828125-2.804688-.546875-3.632813.632812-2.472656 3.539063-5.527344 6.636719-9.03125 9.15625l.019531-7.648437c-.054687-1.398438-1.207031-2.503906-2.609375-2.503906-1.402343 0-2.554687 1.105468-2.609375 2.503906l-.042968 15.292968c-.046876-.042968.265624 7.292969.636718 7.660157l.027344.023437c.382812.363282.871094.601563 1.394531.683594.1875.042969.375.0625.566407.0625 1.441406.003906 2.609374-1.160156 2.613281-2.601562v-7.695313c2.863281 3.222656 9.914062 10.296875 16.582031 10.296875 2.847656.003906 5.648438-.722656 8.132812-2.113281 2.265626 1.296875 4.816407 2.023437 7.425782 2.113281 4.988281 0 8.832031-2.730469 11.136718-7.695312.304688.460937.644532.898437 1.007813 1.3125 1.738281 2.023437 4.28125 3.1875 6.949219 3.175781.488281 0 1.621094-.164063 2.113281-.679688-.421875.421875-.667969 1.761719-.945313 2.351563-.386718.800781-.742187 1.617187-1.144531 2.410156-.808593 1.589844-1.703125 3.132812-2.683593 4.621094-1.984376 3.019531-4.339844 5.777344-7.011719 8.210937-5.863281 5.300781-12.925781 8.25-20.640625 9.652344-4.011719.703125-8.09375.929687-12.164063.675781-4.171875-.257812-8.324219-.832031-12.410156-1.714844-8.285156-1.75-16.484375-4.527343-24.597656-7.695312-4.699219-1.824219-9.378907-3.804688-14.074219-5.820312 2.46875-2.28125 4.855469-4.652344 7.160156-7.113282 3.257813-3.488281 6.320313-7.15625 9.171875-10.988281 2.902344-3.890625 5.523438-7.988281 7.84375-12.257813 2.398438-4.382812 4.378907-8.984374 5.914063-13.742187 1.613281-4.984375 2.550781-10.164063 2.78125-15.398437.105468-2.71875-.023438-5.441407-.378906-8.140626-.359376-2.726562-.976563-5.414062-1.84375-8.027343-1.679688-5.164063-4.191407-10.019531-7.4375-14.371094-3.394532-4.558594-7.695313-8.367187-12.632813-11.179687-4.984375-2.773438-10.5-4.460938-16.183594-4.945313-1.378906-.132813-2.746093-.195313-4.101562-.195313-.683594 0-1.355469 0-2.027344.023438l-1 .046875c-.339844 0-.699219.046875-1.042969.070313-2.8125.214843-5.59375.710937-8.300781 1.484374-5.332031 1.546876-10.328125 4.070313-14.734375 7.441407-4.175781 3.195312-7.894531 6.945312-11.0625 11.140625-1.542969 2.035156-2.972656 4.152344-4.285156 6.339844-.652344 1.097656-1.265625 2.207031-1.875 3.347656-.296875.566406-.589844 1.148437-.878906 1.75l-.421876.917968-.222656.484376-.261718.609374c-1.808594 4.335938.167968 9.324219 4.457031 11.242188 4.292969 1.917969 9.328125.066406 11.351562-4.175781l.40625-.84375.285157-.59375c.199218-.421875.425781-.816407.640624-1.234375.421876-.84375.921876-1.652344 1.417969-2.460938 1-1.625 2.085938-3.195312 3.257813-4.699218 2.226562-2.921876 4.835937-5.53125 7.753906-7.757813 2.699219-2.054687 5.75-3.597656 9-4.558594 1.582031-.445312 3.203125-.730469 4.839844-.847656.210937 0 .421875-.035156.625-.046875l.667968-.027344c.421876 0 .882813-.027344 1.320313 0 .871094 0 1.730469.039063 2.574219.121094 3.234375.265625 6.375 1.203125 9.226562 2.757812 2.832032 1.585938 5.308594 3.746094 7.269532 6.339844 2.105468 2.816406 3.738281 5.957032 4.832031 9.296875.546875 1.617188.945312 3.28125 1.183593 4.96875.25 1.722657.351563 3.460938.304688 5.199219-.128906 3.6875-.757812 7.34375-1.859375 10.867188-1.164063 3.746093-2.679687 7.375-4.527344 10.835937-3.898437 7.238281-8.671875 13.964844-14.21875 20.03125-3.570312 3.957031-7.394531 7.675781-11.445312 11.128906-2.09375-.886719-4.203125-1.769531-6.339844-2.628906-4.386719-1.796875-8.871094-3.339844-13.4375-4.613281-2.515625-.683594-5.082031-1.164063-7.675781-1.4375-1.460938-.144532-2.929688-.179688-4.398438-.105469-1.683594.082031-3.351562.363281-4.964844.84375-1.878906.5625-3.640624 1.453125-5.210937 2.625-1.601563 1.207031-2.96875 2.695313-4.03125 4.394531-.9375 1.5-1.667969 3.117188-2.175781 4.8125-.441406 1.472656-.753906 2.976563-.941406 4.503906-.171876 1.378907-.269532 2.761719-.296876 4.152344-.03125 1.527344.066407 3.058594.289063 4.570313.253906 1.761719.746094 3.476562 1.460937 5.105469.824219 1.898437 2.003907 3.617187 3.476563 5.074218 1.503906 1.464844 3.277344 2.625 5.226563 3.414063 1.703124.6875 3.496093 1.128906 5.324218 1.3125 3.019532.269531 6.0625.078125 9.019532-.574219 5.402343-1.144531 10.039062-3.101562 14.441406-5.292969 4.308594-2.191406 8.460937-4.679687 12.421875-7.445312 1.066406-.738281 2.117187-1.492188 3.152343-2.265625 6.898438 2.726562 13.886719 5.472656 21.042969 7.9375 8.628907 2.957031 17.5 5.535156 26.753907 7.074218 4.675781.800782 9.40625 1.226563 14.144531 1.269532 4.855469.046875 9.699219-.476563 14.429687-1.554688 9.664063-2.203125 18.375-7.425781 24.875-14.90625 3.117188-3.609375 5.796875-7.574218 7.984375-11.808594 1.921875-3.695312 3.644531-7.445312 4.769531-11.542968 1.09375-3.984375 1.527344-8.316406 1.933594-12.433594.113282-1.074219.164063-2.152344.152344-3.230469.027344-.84375.039062-1.691406.039062-2.585937.011719-.699219-.257812-1.371094-.75-1.867188-.488281-.5-1.160156-.777344-1.855468-.777344zm-35.4375 17.804688c-.820313-.75-1.488282-1.652344-1.964844-2.660156-1.265625-2.75-1.167969-6.289063.195312-8.40625.523438-.941406 1.515626-1.527344 2.59375-1.523438 1.199219 0 2.078126.316406 2.617188.941406.675781.78125.820312 1.953126.820312 2.792969 0 3.707031-1.816406 6.742188-4.261718 8.855469zm-111.316406 26.703125c-1.152344.210937-2.320313.320313-3.492188.320313-3.382812 0-4.582031-3.804688-4.226562-6.078126.230468-1.691406.96875-3.277343 2.113281-4.542968 1.554687-1.566406 3.832031-1.234375 5.777343-.988282 2.847657.414063 5.652344 1.085938 8.378907 2.015626 1.328125.421874 5.914062 1.996093 6.453125 2.222656-4.648438 2.976562-9.539063 6.070312-15.003906 7.050781zm0 0" fill="#fff"/></svg>

<svg xmlns="http://www.w3.org/2000/svg" xmlns:xlink="http://www.w3.org/1999/xlink" width="250px" height="250px" viewBox="0 0 250 250" version="1.1">
<defs>
<linearGradient id="linear0" gradientUnits="userSpaceOnUse" x1="358.220001" y1="1179.98999" x2="230.529999" y2="-627.710022" gradientTransform="matrix(0.42264,0,0,0.42264,0,0)">
<stop offset="0.3" style="stop-color:rgb(9.019608%,57.647061%,43.529412%);stop-opacity:1;"/>
<stop offset="0.41" style="stop-color:rgb(7.843138%,62.7451%,45.09804%);stop-opacity:1;"/>
<stop offset="0.63" style="stop-color:rgb(4.313726%,76.078433%,49.411765%);stop-opacity:1;"/>
<stop offset="0.79" style="stop-color:rgb(1.568628%,87.843138%,52.941179%);stop-opacity:1;"/>
</linearGradient>
</defs>
<g id="surface1">
<path style=" stroke:none;fill-rule:nonzero;fill:url(#linear0);" d="M 250 125 C 250 194.035156 194.035156 250 125 250 C 55.964844 250 0 194.035156 0 125 C 0 55.964844 55.964844 0 125 0 C 194.035156 0 250 55.964844 250 125 Z M 250 125 "/>
<path style=" stroke:none;fill-rule:nonzero;fill:rgb(100%,100%,100%);fill-opacity:1;" d="M 212.027344 123.382812 C 210.585938 123.382812 209.417969 124.546875 209.414062 125.988281 C 209.414062 127.925781 209.355469 129.757812 209.238281 131.484375 C 208.84375 135.121094 207.671875 138.347656 206.046875 139.996094 C 205.28125 140.835938 204.1875 141.304688 203.050781 141.273438 C 201.914062 141.242188 200.847656 140.71875 200.128906 139.839844 C 197.636719 137.039062 196.871094 130.894531 197.40625 126.269531 C 197.519531 124.867188 196.5 123.628906 195.101562 123.46875 C 193.707031 123.304688 192.433594 124.277344 192.222656 125.667969 C 191.953125 128.0625 191.953125 130.480469 192.222656 132.875 C 192.199219 133.085938 192.175781 133.296875 192.148438 133.507812 C 191.019531 142.578125 187.140625 144.496094 184.085938 144.496094 C 183.113281 144.464844 182.152344 144.28125 181.242188 143.953125 L 181.394531 143.78125 C 184.316406 140.476562 186.066406 136.195312 186.066406 132.328125 C 186.066406 129.847656 185.34375 127.679688 183.953125 126.117188 C 182.871094 124.847656 180.851562 123.371094 177.394531 123.371094 C 174.539062 123.359375 171.890625 124.847656 170.414062 127.289062 C 168.078125 130.914062 167.855469 136.292969 169.855469 140.683594 C 170.390625 141.84375 171.089844 142.914062 171.933594 143.871094 C 170.835938 144.265625 169.679688 144.476562 168.511719 144.496094 C 164.847656 144.496094 159.554688 139.996094 156.511719 136.746094 C 159.855469 134.097656 162.800781 130.980469 165.253906 127.488281 C 166.082031 126.3125 165.796875 124.683594 164.617188 123.855469 C 163.441406 123.027344 161.8125 123.308594 160.984375 124.488281 C 158.511719 128.027344 155.457031 131.125 151.953125 133.644531 L 151.972656 125.996094 C 151.917969 124.597656 150.765625 123.492188 149.363281 123.492188 C 147.960938 123.492188 146.808594 124.597656 146.753906 125.996094 L 146.710938 141.289062 C 146.664062 141.246094 146.976562 148.582031 147.347656 148.949219 L 147.375 148.972656 C 147.757812 149.335938 148.246094 149.574219 148.769531 149.65625 C 148.957031 149.699219 149.144531 149.71875 149.335938 149.71875 C 150.777344 149.722656 151.945312 148.558594 151.949219 147.117188 L 151.949219 139.421875 C 154.8125 142.644531 161.863281 149.71875 168.53125 149.71875 C 171.378906 149.722656 174.179688 148.996094 176.664062 147.605469 C 178.929688 148.902344 181.480469 149.628906 184.089844 149.71875 C 189.078125 149.71875 192.921875 146.988281 195.226562 142.023438 C 195.53125 142.484375 195.871094 142.921875 196.234375 143.335938 C 197.972656 145.359375 200.515625 146.523438 203.183594 146.511719 C 203.671875 146.511719 204.804688 146.347656 205.296875 145.832031 C 204.875 146.253906 204.628906 147.59375 204.351562 148.183594 C 203.964844 148.984375 203.609375 149.800781 203.207031 150.59375 C 202.398438 152.183594 201.503906 153.726562 200.523438 155.214844 C 198.539062 158.234375 196.183594 160.992188 193.511719 163.425781 C 187.648438 168.726562 180.585938 171.675781 172.871094 173.078125 C 168.859375 173.78125 164.777344 174.007812 160.707031 173.753906 C 156.535156 173.496094 152.382812 172.921875 148.296875 172.039062 C 140.011719 170.289062 131.8125 167.511719 123.699219 164.34375 C 119 162.519531 114.320312 160.539062 109.625 158.523438 C 112.09375 156.242188 114.480469 153.871094 116.785156 151.410156 C 120.042969 147.921875 123.105469 144.253906 125.957031 140.421875 C 128.859375 136.53125 131.480469 132.433594 133.800781 128.164062 C 136.199219 123.78125 138.179688 119.179688 139.714844 114.421875 C 141.328125 109.4375 142.265625 104.257812 142.496094 99.023438 C 142.601562 96.304688 142.472656 93.582031 142.117188 90.882812 C 141.757812 88.15625 141.140625 85.46875 140.273438 82.855469 C 138.59375 77.691406 136.082031 72.835938 132.835938 68.484375 C 129.441406 63.925781 125.140625 60.117188 120.203125 57.304688 C 115.21875 54.53125 109.703125 52.84375 104.019531 52.359375 C 102.640625 52.226562 101.273438 52.164062 99.917969 52.164062 C 99.234375 52.164062 98.5625 52.164062 97.890625 52.1875 L 96.890625 52.234375 C 96.550781 52.234375 96.191406 52.28125 95.847656 52.304688 C 93.035156 52.519531 90.253906 53.015625 87.546875 53.789062 C 82.214844 55.335938 77.21875 57.859375 72.8125 61.230469 C 68.636719 64.425781 64.917969 68.175781 61.75 72.371094 C 60.207031 74.40625 58.777344 76.523438 57.464844 78.710938 C 56.8125 79.808594 56.199219 80.917969 55.589844 82.058594 C 55.292969 82.625 55 83.207031 54.710938 83.808594 L 54.289062 84.726562 L 54.066406 85.210938 L 53.804688 85.820312 C 51.996094 90.15625 53.972656 95.144531 58.261719 97.0625 C 62.554688 98.980469 67.589844 97.128906 69.613281 92.886719 L 70.019531 92.042969 L 70.304688 91.449219 C 70.503906 91.027344 70.730469 90.632812 70.945312 90.214844 C 71.367188 89.371094 71.867188 88.5625 72.363281 87.753906 C 73.363281 86.128906 74.449219 84.558594 75.621094 83.054688 C 77.847656 80.132812 80.457031 77.523438 83.375 75.296875 C 86.074219 73.242188 89.125 71.699219 92.375 70.738281 C 93.957031 70.292969 95.578125 70.007812 97.214844 69.890625 C 97.425781 69.890625 97.636719 69.855469 97.839844 69.84375 L 98.507812 69.816406 C 98.929688 69.816406 99.390625 69.789062 99.828125 69.816406 C 100.699219 69.816406 101.558594 69.855469 102.402344 69.9375 C 105.636719 70.203125 108.777344 71.140625 111.628906 72.695312 C 114.460938 74.28125 116.9375 76.441406 118.898438 79.035156 C 121.003906 81.851562 122.636719 84.992188 123.730469 88.332031 C 124.277344 89.949219 124.675781 91.613281 124.914062 93.300781 C 125.164062 95.023438 125.265625 96.761719 125.21875 98.5 C 125.089844 102.1875 124.460938 105.84375 123.359375 109.367188 C 122.195312 113.113281 120.679688 116.742188 118.832031 120.203125 C 114.933594 127.441406 110.160156 134.167969 104.613281 140.234375 C 101.042969 144.191406 97.21875 147.910156 93.167969 151.363281 C 91.074219 150.476562 88.964844 149.59375 86.828125 148.734375 C 82.441406 146.9375 77.957031 145.394531 73.390625 144.121094 C 70.875 143.4375 68.308594 142.957031 65.714844 142.683594 C 64.253906 142.539062 62.785156 142.503906 61.316406 142.578125 C 59.632812 142.660156 57.964844 142.941406 56.351562 143.421875 C 54.472656 143.984375 52.710938 144.875 51.140625 146.046875 C 49.539062 147.253906 48.171875 148.742188 47.109375 150.441406 C 46.171875 151.941406 45.441406 153.558594 44.933594 155.253906 C 44.492188 156.726562 44.179688 158.230469 43.992188 159.757812 C 43.820312 161.136719 43.722656 162.519531 43.695312 163.910156 C 43.664062 165.4375 43.761719 166.96875 43.984375 168.480469 C 44.238281 170.242188 44.730469 171.957031 45.445312 173.585938 C 46.269531 175.484375 47.449219 177.203125 48.921875 178.660156 C 50.425781 180.125 52.199219 181.285156 54.148438 182.074219 C 55.851562 182.761719 57.644531 183.203125 59.472656 183.386719 C 62.492188 183.65625 65.535156 183.464844 68.492188 182.8125 C 73.894531 181.667969 78.53125 179.710938 82.933594 177.519531 C 87.242188 175.328125 91.394531 172.839844 95.355469 170.074219 C 96.421875 169.335938 97.472656 168.582031 98.507812 167.808594 C 105.40625 170.535156 112.394531 173.28125 119.550781 175.746094 C 128.179688 178.703125 137.050781 181.28125 146.304688 182.820312 C 150.980469 183.621094 155.710938 184.046875 160.449219 184.089844 C 165.304688 184.136719 170.148438 183.613281 174.878906 182.535156 C 184.542969 180.332031 193.253906 175.109375 199.753906 167.628906 C 202.871094 164.019531 205.550781 160.054688 207.738281 155.820312 C 209.660156 152.125 211.382812 148.375 212.507812 144.277344 C 213.601562 140.292969 214.035156 135.960938 214.441406 131.84375 C 214.554688 130.769531 214.605469 129.691406 214.59375 128.613281 C 214.621094 127.769531 214.632812 126.921875 214.632812 126.027344 C 214.644531 125.328125 214.375 124.65625 213.882812 124.160156 C 213.394531 123.660156 212.722656 123.382812 212.027344 123.382812 Z M 176.589844 141.1875 C 175.769531 140.4375 175.101562 139.535156 174.625 138.527344 C 173.359375 135.777344 173.457031 132.238281 174.820312 130.121094 C 175.34375 129.179688 176.335938 128.59375 177.414062 128.597656 C 178.613281 128.597656 179.492188 128.914062 180.03125 129.539062 C 180.707031 130.320312 180.851562 131.492188 180.851562 132.332031 C 180.851562 136.039062 179.035156 139.074219 176.589844 141.1875 Z M 65.273438 167.890625 C 64.121094 168.101562 62.953125 168.210938 61.78125 168.210938 C 58.398438 168.210938 57.199219 164.40625 57.554688 162.132812 C 57.785156 160.441406 58.523438 158.855469 59.667969 157.589844 C 61.222656 156.023438 63.5 156.355469 65.445312 156.601562 C 68.292969 157.015625 71.097656 157.6875 73.824219 158.617188 C 75.152344 159.039062 79.738281 160.613281 80.277344 160.839844 C 75.628906 163.816406 70.738281 166.910156 65.273438 167.890625 Z M 65.273438 167.890625 "/>
</g>
</svg>
